X:114
T:Ruffians Rant, The
M:2/4
L:1/8
K:Em
B|\
A<F "tr"F>D| "tr"E>DFB| A<F "tr"F>D| "tr"E>DEB|\
A<F"tr"E>D| d>ef>e| dDE::
B|\
A<Fd>A| B>Ad>B| A<F d>A| B>ABd|\
A<F("tr"E>D)| d>e"tr"fe| d>Bd>F| E>DE::
b|\
a<f"tr"f>e| "tr"f>efb| a<f"tr"f>d| "tr"e>deb|\
a<ff>e| d>e"tr"f>e| (d/c/B/A/ d3/)F/| E>DE::
B|\
A<Fd>A| "tr"B>Ad>A| "tr"B>Ad>A| B>AB<d|\
A<FE>D| d>e"tr"f>e| d>BA>F| "tr"E>DE::
